docs/images/icons/Wordpress.svg

<svg width="50" height="50" viewBox="0 0 50 50" fill="none" xmlns="http://www.w3.org/2000/svg">
<g id="Wordpress-Logo 1" clip-path="url(#clip0_49_86)">
<g id="Group">
<path id="Vector" d="M3.55371 25C3.55371 33.4892 8.48719 40.8256 15.6411 44.3022L5.41055 16.2716C4.22054 18.939 3.55371 21.8907 3.55371 25Z" fill="white"/>
<path id="Vector_2" d="M39.4793 23.9177C39.4793 21.2671 38.5272 19.4315 37.7106 18.0028C36.6234 16.2361 35.6044 14.74 35.6044 12.9734C35.6044 11.0019 37.0997 9.16666 39.2059 9.16666C39.3009 9.16666 39.3911 9.1785 39.4838 9.1838C35.6681 5.68805 30.5844 3.5537 25.0008 3.5537C17.5082 3.5537 10.9162 7.39797 7.0813 13.2207C7.58448 13.2358 8.05869 13.2464 8.46148 13.2464C10.7048 13.2464 14.1773 12.9742 14.1773 12.9742C15.3334 12.9061 15.4697 14.6041 14.3148 14.7409C14.3148 14.7409 13.153 14.8776 11.8601 14.9453L19.6703 38.1762L24.3638 24.0997L21.0223 14.9445C19.8674 14.8768 18.7733 14.74 18.7733 14.74C17.6175 14.6723 17.753 12.9052 18.9088 12.9734C18.9088 12.9734 22.4506 13.2456 24.558 13.2456C26.8009 13.2456 30.2738 12.9734 30.2738 12.9734C31.4308 12.9052 31.5667 14.6033 30.4114 14.74C30.4114 14.74 29.2471 14.8768 27.9567 14.9445L35.7072 37.9995L37.8465 30.8509C38.7737 27.8844 39.4793 25.7538 39.4793 23.9177Z" fill="white"/>
<path id="Vector_3" d="M25.3771 26.876L18.9422 45.5746C20.8635 46.1394 22.8954 46.4483 25.0008 46.4483C27.4984 46.4483 29.8935 46.0166 32.1229 45.2326C32.0654 45.1408 32.0131 45.0433 31.9703 44.9372L25.3771 26.876Z" fill="white"/>
<path id="Vector_4" d="M43.8198 14.7103C43.912 15.3934 43.9643 16.1268 43.9643 16.9156C43.9643 19.092 43.5578 21.5385 42.3335 24.5976L35.7823 43.5386C42.1585 39.8204 46.4471 32.9126 46.4471 25.0004C46.4475 21.2716 45.495 17.7653 43.8198 14.7103Z" fill="white"/>
<path id="Vector_5" d="M25.0008 0C11.2157 0 0 11.2149 0 25C0 38.7867 11.2157 50.0012 25.0008 50.0012C38.7855 50.0012 50.0029 38.7867 50.0029 25C50.0024 11.2149 38.7855 0 25.0008 0ZM25.0008 48.8553C11.8479 48.8553 1.14634 38.1538 1.14634 25C1.14634 11.847 11.8475 1.14634 25.0008 1.14634C38.1534 1.14634 48.8541 11.847 48.8541 25C48.8541 38.1538 38.1534 48.8553 25.0008 48.8553Z" fill="white"/>
</g>
</g>
<defs>
<clipPath id="clip0_49_86">
<rect width="50" height="50.0012" fill="white"/>
</clipPath>
</defs>
</svg>

<svg width="50" height="50" fill="none" xmlns="http://www.w3.org/2000/svg"><g fill="#fff" clip-path="url(#a)"><path d="M3.554 25c0 8.49 4.933 15.826 12.087 19.302l-10.23-28.03A21.366 21.366 0 0 0 3.554 25Zm35.926-1.082c0-2.65-.953-4.486-1.77-5.915-1.087-1.767-2.106-3.263-2.106-5.03 0-1.971 1.496-3.806 3.602-3.806.095 0 .185.011.278.017A21.368 21.368 0 0 0 25 3.554c-7.493 0-14.085 3.844-17.92 9.667.503.015.978.025 1.38.025 2.244 0 5.716-.272 5.716-.272 1.156-.068 1.293 1.63.138 1.767 0 0-1.162.137-2.455.204l7.81 23.231L24.364 24.1l-3.342-9.156a39.009 39.009 0 0 1-2.249-.204c-1.155-.068-1.02-1.835.136-1.767 0 0 3.542.273 5.649.273 2.243 0 5.716-.273 5.716-.273 1.157-.068 1.293 1.63.137 1.767 0 0-1.164.137-2.454.204L35.707 38l2.14-7.148c.927-2.967 1.632-5.097 1.632-6.933Z"/><path d="m25.377 26.876-6.435 18.699a21.446 21.446 0 0 0 13.18-.342 1.881 1.881 0 0 1-.152-.296l-6.593-18.061ZM43.82 14.71c.092.683.144 1.417.144 2.206 0 2.176-.406 4.622-1.63 7.682l-6.552 18.94C42.16 39.82 46.447 32.914 46.447 25a21.34 21.34 0 0 0-2.627-10.29Z"/><path d="M25 0C11.217 0 0 11.215 0 25c0 13.787 11.216 25.001 25 25.001 13.785 0 25.003-11.214 25.003-25.001C50.003 11.215 38.785 0 25 0Zm0 48.855C11.849 48.855 1.147 38.154 1.147 25c0-13.153 10.701-23.854 23.855-23.854 13.152 0 23.853 10.701 23.853 23.854 0 13.154-10.7 23.855-23.853 23.855Z"/></g><defs><clipPath id="a"><path fill="#fff" d="M0 0h50v50.001H0z"/></clipPath></defs></svg>
